design/assets/logos/insights.svg

<?xml version="1.0" encoding="UTF-8"?>
<svg width="106px" height="34px" viewBox="0 0 106 34" version="1.1" xmlns="http://www.w3.org/2000/svg" xmlns:xlink="http://www.w3.org/1999/xlink">
    <!-- Generator: Sketch 52.6 (67491) - http://www.bohemiancoding.com/sketch -->
    <title>Artboard</title>
    <desc>Created with Sketch.</desc>
    <g id="Artboard" stroke="none" stroke-width="1" fill="none" fill-rule="evenodd">
        <path d="M38.2943636,28.7029091 L38.2943636,15.8861818 L40.4652727,15.8861818 L40.4652727,28.7029091 L38.2943636,28.7029091 Z M42.7069455,19.4347636 L44.7942182,19.4347636 L44.7942182,20.3114909 C45.2953091,19.7271273 46.2138545,19.2260364 47.2993091,19.2260364 C49.4073091,19.2260364 50.5764,20.6242182 50.5764,22.6700364 L50.5764,28.7027636 L48.4891273,28.7027636 L48.4891273,23.0249455 C48.4891273,21.8769455 47.9254909,21.1253091 46.7356727,21.1253091 C45.8378545,21.1253091 45.0240364,21.6889455 44.7942182,22.6078545 L44.7942182,28.7027636 L42.7069455,28.7027636 L42.7069455,19.4347636 Z M54.0563636,26.0309818 C54.2858182,26.8033455 54.9749091,27.2000727 55.8930909,27.2000727 C56.8534545,27.2000727 57.4796364,26.8240727 57.4796364,26.0935273 C57.4796364,25.5924364 57.1665455,25.3211636 56.3941818,25.1331636 L54.4738182,24.6742545 C53.1589091,24.3608 52.1774545,23.6513455 52.1774545,22.1277091 C52.1774545,20.4575273 53.6596364,19.2258909 55.6847273,19.2258909 C57.8552727,19.2258909 59.0869091,20.2695273 59.4,21.9604364 L57.3545455,21.9604364 C57.1665455,21.3553455 56.624,20.9375273 55.6636364,20.9375273 C54.9330909,20.9375273 54.1814545,21.2717091 54.1814545,22.0022545 C54.1814545,22.4197091 54.4738182,22.6909818 55.1418182,22.8578909 L57.104,23.3171636 C58.6905455,23.6928 59.4836364,24.5906182 59.4836364,25.9477091 C59.4836364,27.7840727 57.9596364,28.9117091 55.8723636,28.9117091 C53.7014545,28.9117091 52.1985455,27.8262545 51.9272727,26.0309818 L54.0563636,26.0309818 Z M61.0638182,28.7029091 L61.0638182,19.4349091 L63.1510909,19.4349091 L63.1510909,28.7029091 L61.0638182,28.7029091 Z M62.1074545,17.9109091 C61.4183636,17.9109091 60.8132727,17.3472727 60.8132727,16.6374545 C60.8132727,15.928 61.4183636,15.3643636 62.1074545,15.3643636 C62.7961818,15.3643636 63.4016364,15.928 63.4016364,16.6374545 C63.4016364,17.3472727 62.7961818,17.9109091 62.1074545,17.9109091 Z M71.2440364,22.1691273 C70.8891273,21.5429455 70.1167636,21.0629455 69.2400364,21.0629455 C67.6327636,21.0629455 66.7142182,22.2734909 66.7142182,23.9225818 C66.7142182,25.5716727 67.6327636,26.7825818 69.2400364,26.7825818 C70.1167636,26.7825818 70.8891273,26.3022182 71.2440364,25.6760364 L71.2440364,22.1691273 Z M71.2440364,27.6593091 C70.8265818,28.1600364 69.9287636,28.6193091 68.8851273,28.6193091 C66.1509455,28.6193091 64.5851273,26.3647636 64.5851273,23.9225818 C64.5851273,21.4800364 66.1509455,19.2258545 68.8851273,19.2258545 C69.9287636,19.2258545 70.8265818,19.6851273 71.2440364,20.1862182 L71.2440364,19.4345818 L73.3313091,19.4345818 L73.3313091,27.9305818 C73.3313091,31.0614909 71.4320364,32.4600364 68.9687636,32.4600364 C66.6098545,32.4600364 65.0862182,31.2284 64.8567636,29.2040364 L66.8811273,29.2040364 C67.0902182,30.2265818 67.8207636,30.7484 68.9687636,30.7484 C70.5134909,30.7484 71.2440364,29.8091273 71.2440364,28.0764 L71.2440364,27.6593091 Z M75.4022545,15.1346909 L77.4895273,15.1346909 L77.4895273,20.3114182 C77.9906182,19.7270545 78.9091636,19.2259636 79.9946182,19.2259636 C82.1026182,19.2259636 83.2717091,20.6245091 83.2717091,22.6703273 L83.2717091,28.7030545 L81.1844364,28.7030545 L81.1844364,23.0248727 C81.1844364,21.8768727 80.6208,21.1256 79.4309818,21.1256 C78.5331636,21.1256 77.7193455,21.6888727 77.4895273,22.6077818 L77.4895273,28.7030545 L75.4022545,28.7030545 L75.4022545,15.1346909 Z M85.708,21.1673455 L84.2465455,21.1673455 L84.2465455,19.4346182 L85.708,19.4346182 L85.708,16.9506182 L87.7952727,16.9506182 L87.7952727,19.4346182 L89.8825455,19.4346182 L89.8825455,21.1673455 L87.7952727,21.1673455 L87.7952727,25.9680727 C87.7952727,26.7200727 88.2127273,27.0535273 88.9018182,27.0535273 C89.3192727,27.0535273 89.7992727,26.8869818 90.0916364,26.6778909 L90.0916364,28.5775273 C89.7367273,28.7862545 89.1730909,28.9117091 88.5261818,28.9117091 C86.8767273,28.9117091 85.708,28.0349818 85.708,26.1978909 L85.708,21.1673455 Z M93.2268364,26.0309818 C93.4562909,26.8033455 94.1453818,27.2000727 95.0635636,27.2000727 C96.0239273,27.2000727 96.6501091,26.8240727 96.6501091,26.0935273 C96.6501091,25.5924364 96.3370182,25.3211636 95.5646545,25.1331636 L93.6442909,24.6742545 C92.3293818,24.3608 91.3479273,23.6513455 91.3479273,22.1277091 C91.3479273,20.4575273 92.8301091,19.2258909 94.8552,19.2258909 C97.0257455,19.2258909 98.2573818,20.2695273 98.5704727,21.9604364 L96.5250182,21.9604364 C96.3370182,21.3553455 95.7944727,20.9375273 94.8341091,20.9375273 C94.1035636,20.9375273 93.3519273,21.2717091 93.3519273,22.0022545 C93.3519273,22.4197091 93.6442909,22.6909818 94.3122909,22.8578909 L96.2744727,23.3171636 C97.8610182,23.6928 98.6541091,24.5906182 98.6541091,25.9477091 C98.6541091,27.7840727 97.1301091,28.9117091 95.0428364,28.9117091 C92.8719273,28.9117091 91.3690182,27.8262545 91.0977455,26.0309818 L93.2268364,26.0309818 Z M99.6661091,27.6030909 L100.583564,27.6030909 L100.583564,27.7681818 L100.218109,27.7681818 L100.218109,28.7038182 L100.031564,28.7038182 L100.031564,27.7681818 L99.6661091,27.7681818 L99.6661091,27.6030909 Z M101.250436,28.7039273 L100.947527,27.9384727 L100.947527,28.7039273 L100.770073,28.7039273 L100.770073,27.6032 L100.983527,27.6032 L101.318436,28.4493818 L101.650073,27.6032 L101.857709,27.6032 L101.857709,28.7039273 L101.6788,28.7039273 L101.6788,27.9384727 L101.3828,28.7039273 L101.250436,28.7039273 Z" id="product" fill="#FFAE1A"></path>
        <path d="M18.1559636,15.9354545 L20.1636,13.9278182 L22.1712364,15.9354545 L20.1636,17.9430909 L18.1559636,15.9354545 Z M9.64578182,7.386 L11.6534182,5.37872727 L13.6610545,7.386 L11.6534182,9.394 L9.64578182,7.386 Z M25.3610545,19.2510909 C25.1668727,21.362 24.2639636,23.4194545 22.6516,25.0318182 C22.3137818,25.3696364 21.9563273,25.6758182 21.5828727,25.9514545 L21.5828727,20.5383636 L26.1861455,15.9354545 L20.1636,9.91290909 L14.1406909,15.9354545 L18.7439636,20.5383636 L18.7439636,27.3747273 C16.8966909,27.9343636 14.9105091,27.9132727 13.0726909,27.3143636 L13.0726909,11.9892727 L17.6759636,7.386 L11.6534182,1.36381818 L5.63087273,7.386 L10.2337818,11.9892727 L10.2337818,24.9132727 L10.2337818,24.9143636 L10.2337818,25.8067273 C9.92832727,25.5689091 9.63269091,25.3121818 9.35232727,25.0318182 C6.60432727,22.2838182 5.91596364,18.2445455 7.28650909,14.8492727 L5.15378182,12.7161818 C2.74796364,17.33 3.47923636,23.1663636 7.34832727,27.0350909 C9.6596,29.3470909 12.7330545,30.6201818 16.0017818,30.6201818 C19.2708727,30.6201818 22.3443273,29.3470909 24.6556,27.0350909 C26.8206909,24.8703636 27.9996,22.0892727 28.2003273,19.2510909 L25.3610545,19.2510909 Z" id="bug" fill="#FFAE1A"></path>
        <path d="M41.2713818,8.72418182 C42.2302909,8.72418182 42.8030182,7.95145455 42.8030182,6.93509091 C42.8030182,5.90454545 42.2302909,5.13145455 41.2713818,5.13145455 C40.7415636,5.13145455 40.2837455,5.44636364 40.0688364,5.87581818 L40.0688364,7.97981818 C40.2837455,8.42381818 40.7561091,8.72418182 41.2713818,8.72418182 Z M41.6721091,3.58563636 C43.5328364,3.58563636 44.5921091,5.13145455 44.5921091,6.93509091 C44.5921091,8.73836364 43.5328364,10.27 41.6721091,10.27 C40.9852,10.27 40.3550182,9.94090909 40.0688364,9.59727273 L40.0688364,12.4889091 L38.2939273,12.4889091 L38.2939273,3.72890909 L40.0688364,3.72890909 L40.0688364,4.25836364 C40.3550182,3.91472727 40.9852,3.58563636 41.6721091,3.58563636 Z M49.2444,7.79378182 L49.2444,3.72869091 L51.0334909,3.72869091 L51.0334909,10.1268727 L49.2585818,10.1268727 L49.2585818,9.54032727 C48.9007636,9.94069091 48.2851273,10.2701455 47.5407636,10.2701455 C46.1094909,10.2701455 45.2938545,9.32541818 45.2938545,7.90832727 L45.2938545,3.72869091 L47.0687636,3.72869091 L47.0687636,7.55050909 C47.0687636,8.22323636 47.3978545,8.68105455 48.0993091,8.68105455 C48.6433091,8.68105455 49.1156727,8.35196364 49.2444,7.79378182 Z M55.1847636,8.72418182 C56.1436727,8.72418182 56.7164,7.95145455 56.7164,6.93509091 C56.7164,5.90454545 56.1436727,5.13145455 55.1847636,5.13145455 C54.6549455,5.13145455 54.1971273,5.44636364 53.9822182,5.87581818 L53.9822182,7.97981818 C54.1971273,8.42381818 54.6694909,8.72418182 55.1847636,8.72418182 Z M55.5854909,3.58563636 C57.4462182,3.58563636 58.5054909,5.13145455 58.5054909,6.93509091 C58.5054909,8.73836364 57.4462182,10.27 55.5854909,10.27 C54.8985818,10.27 54.2687636,9.94090909 53.9822182,9.59727273 L53.9822182,12.4889091 L52.2073091,12.4889091 L52.2073091,3.72890909 L53.9822182,3.72890909 L53.9822182,4.25836364 C54.2687636,3.91472727 54.8985818,3.58563636 55.5854909,3.58563636 Z M62.2559636,8.72418182 C63.2152364,8.72418182 63.7876,7.95145455 63.7876,6.93509091 C63.7876,5.90454545 63.2152364,5.13145455 62.2559636,5.13145455 C61.7261455,5.13145455 61.2683273,5.44636364 61.0537818,5.87581818 L61.0537818,7.97981818 C61.2683273,8.42381818 61.7406909,8.72418182 62.2559636,8.72418182 Z M62.6566909,3.58563636 C64.5174182,3.58563636 65.5766909,5.13145455 65.5766909,6.93509091 C65.5766909,8.73836364 64.5174182,10.27 62.6566909,10.27 C61.9697818,10.27 61.3399636,9.94090909 61.0537818,9.59727273 L61.0537818,12.4889091 L59.2785091,12.4889091 L59.2785091,3.72890909 L61.0537818,3.72890909 L61.0537818,4.25836364 C61.3399636,3.91472727 61.9697818,3.58563636 62.6566909,3.58563636 Z M67.7669455,6.23378182 L70.2433091,6.23378182 C70.2291273,5.56069091 69.8280364,5.03123636 69.0982182,5.03123636 C68.4109455,5.03123636 67.9244,5.44650909 67.7669455,6.23378182 Z M69.0840364,3.58578182 C70.9589455,3.58578182 71.9894909,4.88832727 71.9894909,6.76323636 L71.9894909,7.30723636 L67.7240364,7.30723636 C67.7814909,8.26614545 68.3251273,8.83887273 69.1124,8.83887273 C69.7138545,8.83887273 70.1574909,8.58105455 70.3004,8.03705455 L71.9465818,8.03705455 C71.7174909,9.39705455 70.7156727,10.2701455 69.1124,10.2701455 C67.2516727,10.2701455 66.0062182,8.91014545 66.0062182,6.93523636 C66.0062182,5.00250909 67.2945818,3.58578182 69.0840364,3.58578182 Z M75.6540364,8.69578182 C75.9260364,8.69578182 76.2267636,8.60996364 76.4267636,8.48087273 L76.4267636,10.0554182 C76.1838545,10.1841455 75.7540364,10.2557818 75.2820364,10.2557818 C73.9794909,10.2557818 73.1634909,9.61178182 73.1634909,8.19469091 L73.1634909,5.16014545 L72.1900364,5.16014545 L72.1900364,3.72887273 L73.1634909,3.72887273 L73.1634909,1.99687273 L74.9238545,1.99687273 L74.9238545,3.72887273 L76.3267636,3.72887273 L76.3267636,5.16014545 L74.9238545,5.16014545 L74.9238545,7.9656 C74.9238545,8.46669091 75.1958545,8.69578182 75.6540364,8.69578182 Z" id="puppet" fill="#090A0A"></path>
    </g>
</svg>

<svg width="106" height="34" xmlns="http://www.w3.org/2000/svg"><g fill="none" fill-rule="evenodd"><path d="M38.294 28.703V15.886h2.171v12.817h-2.17zm4.413-9.268h2.087v.876c.501-.584 1.42-1.085 2.505-1.085 2.108 0 3.277 1.398 3.277 3.444v6.033H48.49v-5.678c0-1.148-.564-1.9-1.753-1.9-.898 0-1.712.564-1.942 1.483v6.095h-2.087v-9.268zm11.35 6.596c.229.772.918 1.17 1.836 1.17.96 0 1.587-.377 1.587-1.107 0-.502-.313-.773-1.086-.96l-1.92-.46c-1.315-.313-2.297-1.023-2.297-2.546 0-1.67 1.483-2.902 3.508-2.902 2.17 0 3.402 1.044 3.715 2.734h-2.045c-.188-.605-.731-1.022-1.691-1.022-.73 0-1.483.334-1.483 1.064 0 .418.293.689.96.856l1.963.46c1.587.375 2.38 1.273 2.38 2.63 0 1.836-1.524 2.964-3.612 2.964-2.17 0-3.673-1.086-3.945-2.881h2.13zm7.007 2.672v-9.268h2.087v9.268h-2.087zm1.043-10.792c-.689 0-1.294-.564-1.294-1.274 0-.709.605-1.273 1.294-1.273.69 0 1.295.564 1.295 1.273 0 .71-.606 1.274-1.295 1.274zm9.137 4.258c-.355-.626-1.127-1.106-2.004-1.106-1.607 0-2.526 1.21-2.526 2.86 0 1.649.919 2.86 2.526 2.86.877 0 1.65-.48 2.004-1.107v-3.507zm0 5.49c-.417.501-1.315.96-2.359.96-2.734 0-4.3-2.254-4.3-4.696 0-2.443 1.566-4.697 4.3-4.697 1.044 0 1.942.46 2.359.96v-.751h2.087v8.496c0 3.13-1.899 4.529-4.362 4.529-2.36 0-3.883-1.232-4.112-3.256h2.024c.21 1.023.94 1.544 2.088 1.544 1.544 0 2.275-.939 2.275-2.672v-.417zm4.158-12.524h2.088v5.176c.5-.584 1.42-1.085 2.505-1.085 2.108 0 3.277 1.399 3.277 3.444v6.033h-2.088v-5.678c0-1.148-.563-1.9-1.753-1.9-.898 0-1.712.564-1.941 1.483v6.095h-2.088V15.135zm10.306 6.032h-1.461v-1.732h1.461V16.95h2.087v2.484h2.088v1.732h-2.088v4.801c0 .752.418 1.086 1.107 1.086.417 0 .897-.167 1.19-.376v1.9c-.355.208-.919.334-1.566.334-1.65 0-2.818-.877-2.818-2.714v-5.03zm7.519 4.864c.23.772.918 1.17 1.837 1.17.96 0 1.586-.377 1.586-1.107 0-.502-.313-.773-1.085-.96l-1.92-.46c-1.316-.313-2.297-1.023-2.297-2.546 0-1.67 1.482-2.902 3.507-2.902 2.17 0 3.402 1.044 3.715 2.734h-2.045c-.188-.605-.73-1.022-1.69-1.022-.731 0-1.483.334-1.483 1.064 0 .418.292.689.96.856l1.962.46c1.587.375 2.38 1.273 2.38 2.63 0 1.836-1.524 2.964-3.611 2.964-2.171 0-3.674-1.086-3.945-2.881h2.129zm6.44 1.572h.917v.165h-.366v.936h-.186v-.936h-.366v-.165zm1.583 1.1l-.302-.765v.766h-.178v-1.1h.214l.334.845.332-.846h.208v1.1h-.18v-.765l-.295.766h-.133zM18.156 15.935l2.008-2.007 2.007 2.007-2.007 2.008-2.008-2.008zm-8.51-8.549l2.007-2.007 2.008 2.007-2.008 2.008-2.007-2.008zM25.36 19.251a9.361 9.361 0 0 1-3.778 6.7v-5.413l4.603-4.603-6.022-6.022-6.023 6.022 4.603 4.603v6.837a9.472 9.472 0 0 1-5.671-.06V11.988l4.603-4.603-6.023-6.022-6.022 6.022 4.603 4.603v13.818a9.472 9.472 0 0 1-.882-.775c-2.748-2.748-3.436-6.787-2.065-10.183l-2.133-2.133c-2.406 4.614-1.675 10.45 2.194 14.32a12.156 12.156 0 0 0 8.654 3.584c3.269 0 6.342-1.273 8.654-3.585a12.182 12.182 0 0 0 3.544-7.784h-2.839z" fill="#FFAE1A"/><path d="M41.271 8.724c.96 0 1.532-.773 1.532-1.789 0-1.03-.573-1.804-1.532-1.804-.53 0-.987.315-1.202.745V7.98c.215.444.687.744 1.202.744zm.401-5.138c1.86 0 2.92 1.545 2.92 3.35 0 1.802-1.06 3.334-2.92 3.334-.687 0-1.317-.33-1.603-.673v2.892h-1.775v-8.76h1.775v.53c.286-.344.916-.673 1.603-.673zm7.572 4.208V3.729h1.79v6.398h-1.775V9.54c-.358.4-.974.73-1.718.73-1.432 0-2.247-.945-2.247-2.362v-4.18h1.775v3.823c0 .672.329 1.13 1.03 1.13.544 0 1.017-.329 1.145-.887zm5.94.93c.96 0 1.532-.773 1.532-1.789 0-1.03-.572-1.804-1.531-1.804-.53 0-.988.315-1.203.745V7.98c.215.444.687.744 1.203.744zm.401-5.138c1.861 0 2.92 1.545 2.92 3.35 0 1.802-1.059 3.334-2.92 3.334-.686 0-1.316-.33-1.603-.673v2.892h-1.775v-8.76h1.775v.53c.287-.344.917-.673 1.603-.673zm6.671 5.138c.96 0 1.532-.773 1.532-1.789 0-1.03-.573-1.804-1.532-1.804-.53 0-.988.315-1.202.745V7.98c.214.444.687.744 1.202.744zm.4-5.138c1.861 0 2.92 1.545 2.92 3.35 0 1.802-1.059 3.334-2.92 3.334-.686 0-1.316-.33-1.602-.673v2.892h-1.775v-8.76h1.775v.53c.286-.344.916-.673 1.603-.673zm5.11 2.648h2.477c-.014-.673-.415-1.203-1.145-1.203-.687 0-1.174.416-1.331 1.203zm1.318-2.648c1.875 0 2.905 1.302 2.905 3.177v.544h-4.265c.057.96.601 1.532 1.388 1.532.602 0 1.045-.258 1.188-.802h1.647c-.23 1.36-1.231 2.233-2.835 2.233-1.86 0-3.106-1.36-3.106-3.335 0-1.932 1.289-3.35 3.078-3.35zm6.57 5.11c.272 0 .573-.086.773-.215v1.574c-.243.13-.673.2-1.145.2-1.303 0-2.119-.643-2.119-2.06V5.16h-.973V3.73h.973V1.997h1.76v1.732h1.404V5.16h-1.403v2.806c0 .5.272.73.73.73z" fill="#090A0A"/></g></svg>
